germany/districts/5162.svg

<?xml version="1.0" encoding="UTF-8" standalone="no"?>
<!-- Created with Inkscape (http://www.inkscape.org/) -->
<svg
   xmlns:dc="http://purl.org/dc/elements/1.1/"
   xmlns:cc="http://creativecommons.org/ns#"
   xmlns:rdf="http://www.w3.org/1999/02/22-rdf-syntax-ns#"
   xmlns:svg="http://www.w3.org/2000/svg"
   xmlns="http://www.w3.org/2000/svg"
   xmlns:sodipodi="http://sodipodi.sourceforge.net/DTD/sodipodi-0.dtd"
   xmlns:inkscape="http://www.inkscape.org/namespaces/inkscape"
   id="svg2"
   sodipodi:version="0.32"
   inkscape:version="0.46"
   width="400"
   height="476"
   version="1.0"
   sodipodi:docname="Kreiswappen_des_Rhein-Kreises_Neuss.svg"
   inkscape:output_extension="org.inkscape.output.svg.inkscape">
  <metadata
     id="metadata7">
    <rdf:RDF>
      <cc:Work
         rdf:about="">
        <dc:format>image/svg+xml</dc:format>
        <dc:type
           rdf:resource="http://purl.org/dc/dcmitype/StillImage" />
        <dc:title>Wappen des Rhein-Kreises Neuss</dc:title>
      </cc:Work>
    </rdf:RDF>
  </metadata>
  <defs
     id="defs5">
    <inkscape:perspective
       sodipodi:type="inkscape:persp3d"
       inkscape:vp_x="0 : 526.18109 : 1"
       inkscape:vp_y="0 : 1000 : 0"
       inkscape:vp_z="744.09448 : 526.18109 : 1"
       inkscape:persp3d-origin="372.04724 : 350.78739 : 1"
       id="perspective9" />
    <inkscape:perspective
       id="perspective2486"
       inkscape:persp3d-origin="372.04724 : 350.78739 : 1"
       inkscape:vp_z="744.09448 : 526.18109 : 1"
       inkscape:vp_y="0 : 1000 : 0"
       inkscape:vp_x="0 : 526.18109 : 1"
       sodipodi:type="inkscape:persp3d" />
    <inkscape:perspective
       id="perspective3335"
       inkscape:persp3d-origin="372.04724 : 350.78739 : 1"
       inkscape:vp_z="744.09448 : 526.18109 : 1"
       inkscape:vp_y="0 : 1000 : 0"
       inkscape:vp_x="0 : 526.18109 : 1"
       sodipodi:type="inkscape:persp3d" />
  </defs>
  <sodipodi:namedview
     inkscape:window-height="667"
     inkscape:window-width="815"
     inkscape:pageshadow="2"
     inkscape:pageopacity="0.0"
     guidetolerance="10.0"
     gridtolerance="10.0"
     objecttolerance="10.0"
     borderopacity="1.0"
     bordercolor="#666666"
     pagecolor="#ffffff"
     id="base"
     showgrid="false"
     inkscape:zoom="1"
     inkscape:cx="214.89401"
     inkscape:cy="233.31016"
     inkscape:window-x="41"
     inkscape:window-y="-2"
     inkscape:current-layer="svg2" />
  <path
     style="opacity:1;fill:#ffffff;fill-opacity:1;fill-rule:nonzero;stroke:#000000;stroke-width:2;stroke-linecap:butt;stroke-linejoin:miter;marker:none;marker-start:none;marker-mid:none;marker-end:none;stroke-miterlimit:4;stroke-dasharray:none;stroke-dashoffset:0;stroke-opacity:1;visibility:visible;display:inline;overflow:visible;enable-background:accumulate"
     d="M 200,2 L 2,2.61202 L 2,199.80913 L 2,276.19087 C 2,385.77713 90.308,474 200,474 L 200,2 z"
     id="vorn"
     sodipodi:nodetypes="cccccc" />
  <path
     style="opacity:1;fill:#fcdd09;fill-opacity:1;fill-rule:nonzero;stroke:#000000;stroke-width:2;stroke-linecap:butt;stroke-linejoin:miter;marker:none;marker-start:none;marker-mid:none;marker-end:none;stroke-miterlimit:4;stroke-dasharray:none;stroke-dashoffset:0;stroke-opacity:1;visibility:visible;display:inline;overflow:visible;enable-background:accumulate"
     d="M 200,2 L 398,2.61202 L 398,199.80913 L 398,276.19087 C 398,385.77713 309.692,474 200,474 L 200,2 z"
     id="hinten"
     sodipodi:nodetypes="cccccc" />
  <path
     style="opacity:1;fill:#da121a;fill-opacity:1;fill-rule:nonzero;stroke:none;stroke-width:2;stroke-linecap:butt;stroke-linejoin:miter;marker:none;marker-start:none;marker-mid:none;marker-end:none;stroke-miterlimit:4;stroke-dashoffset:0;stroke-opacity:1;visibility:visible;display:inline;overflow:visible;enable-background:accumulate"
     d="M 218.24865,46.07423 C 244.47112,49.88263 238.60776,82.24173 249.58191,79.12577 C 262.92418,77.7409 272.22418,79.31118 286.47615,80.69605 C 289.11861,84.33135 287.38583,81.73471 288.77205,85.19689 C 269.13409,82.77336 260.75907,83.4658 243.20043,86.92799 C 217.55555,82.77336 231.07109,59.57674 218.24865,46.07423 z"
     id="zunge"
     sodipodi:nodetypes="cccccc" />
  <path
     style="opacity:1;fill:#000000;fill-opacity:1"
     d="M 252.80232,403.75025 C 250.06202,405.59112 248.72697,407.85517 249.16861,415.14454 C 241.66423,411.20917 243.15525,403.25867 246.80975,398.85249 C 250.2404,394.94837 250.93103,393.60778 253.31401,387.88027 C 262.72599,384.85982 261.70183,376.89061 250.8267,381.8363 C 251.11079,370.84026 262.55473,375.86854 266.82745,369.88603 C 274.99151,364.94395 280.98168,373.70131 286.95997,377.64604 C 292.20088,364.55863 304.13418,354.42834 312.05661,338.84362 C 310.13689,336.39872 304.54143,328.32313 302.62172,325.87823 C 290.81007,294.73271 294.01945,275.03872 316.89601,257.83107 C 312.7217,249.13027 306.0511,239.43658 296.17511,237.02074 C 290.39235,236.055 287.06225,230.83032 281.60017,228.51431 C 289.78478,211.8301 308.93364,230.4269 310.85943,206.6639 C 328.70663,204.44007 333.34061,204.15623 339.30921,204.90124 C 347.60819,241.80755 370.12845,269.06526 380.84112,243.00488 C 380.16251,216.35272 346.66999,220.49025 347.29353,174.41395 C 344.61859,154.77017 383.82132,131.37064 385.12463,82.05123 C 385.15853,67.74537 382.87902,60.49896 375.42457,59.11893 C 376.92502,64.08755 379.556,68.47156 377.7329,78.54842 C 374.90563,71.3265 373.10101,68.15355 366.4707,66.16809 C 370.58455,73.24421 377.55082,80.90356 375.49079,90.25519 C 372.50685,83.73735 369.42595,81.97213 363.77043,78.87136 C 368.40757,85.98038 375.90124,94.44638 369.20973,101.59672 C 368.73578,97.64121 366.62391,90.98189 363.23019,90.32355 C 365.75829,101.21223 366.03323,112.8902 357.44932,115.71576 C 359.06891,96.31858 350.21319,79.78525 348.18261,60.59436 C 349.31507,46.0642 355.99373,37.93191 369.94912,37.6241 C 384.02255,37.31097 394.35189,56.85418 394.06835,80.86189 C 398.72975,118.61087 351.47188,159.78937 356.65388,183.52321 C 359.00313,172.99111 365.03381,167.95091 368.14253,154.49705 C 376.93654,168.16034 361.87235,183.38025 365.04482,199.20405 C 367.66591,188.28672 373.77056,186.39933 377.25417,168.97527 C 384.07268,181.247 372.50293,198.58839 374.68793,208.98962 C 377.00705,200.31916 382.21481,196.77949 383.31343,185.48755 C 392.51099,194.92782 378.99447,205.96943 381.06607,218.08751 C 384.26367,215.53053 386.51226,208.16568 388.58787,202.09556 C 393.24101,209.68822 385.54021,218.82842 387.37673,224.53611 C 397.53917,245.66179 390.78423,261.99256 367.58225,276.21216 C 354.62301,285.33556 347.54211,296.60148 344.60393,311.79939 C 344.64235,331.91084 360.44393,344.87785 357.51437,370.93214 C 333.44367,373.82358 311.73859,380.55392 300.26599,394.16293 C 300.4098,400.4566 301.13038,405.46889 298.32987,410.95258 C 298.59727,415.15919 300.7124,416.00604 305.43494,416.77842 C 300.83309,418.79628 299.91029,419.05573 293.61016,418.61697 C 282.14848,417.81872 285.69691,414.37425 278.64883,419.36603 C 276.97654,424.54162 278.31397,426.94329 281.51319,433.04949 C 254.76413,426.7937 263.87858,410.36959 252.80232,403.75025 z M 241.87993,331.19967 C 235.88746,339.92542 242.46975,348.16988 229.25351,343.83924 C 228.29008,346.58042 229.5019,347.69485 231.22444,351.11284 C 222.00503,349.89768 225.90735,336.6562 218.0793,336.85267 C 213.75251,338.86242 214.69819,339.93464 215.46786,346.16926 C 205.11939,335.48501 205.93897,326.54863 213.83261,321.50518 C 213.04971,316.49918 209.65476,310.99615 204.51856,319.21036 C 200.38626,307.38204 212.40603,298.7021 216.35151,295.44477 C 216.96866,294.02266 217.55272,291.80686 210.77553,288.96864 C 221.97503,279.64315 243.66601,298.26627 240.11674,308.77089 C 247.67113,307.33129 255.25273,308.35647 262.30407,307.09862 C 265.70842,293.24789 264.99263,277.56515 270.05473,261.7076 C 271.85717,259.10298 281.08249,248.18856 304.63084,246.07627 C 308.25246,249.33037 310.42893,252.38495 312.169,256.25286 C 285.45114,283.84912 289.88774,288.10207 299.21265,336.5311 C 296.73375,344.569 278.83485,352.59959 276.69863,352.53647 C 266.16851,340.41603 256.2539,333.84683 241.87993,331.19967 z M 234.30693,307.10624 C 231.61139,300.11624 228.23102,297.36722 223.47231,296.87759 C 224.48613,301.72523 227.65169,306.33028 234.30693,307.10624 z M 227.45579,252.08385 C 221.18511,251.09604 226.68193,259.02993 213.52148,258.39437 C 212.30061,255.13565 212.64313,248.58171 207.4861,260.32581 C 205.56147,254.42356 205.8469,245.80259 209.80199,240.93776 C 217.41311,234.63317 213.72516,233.76943 205.25102,229.28862 C 212.99213,225.00764 218.46574,222.79239 222.98251,222.36483 C 232.30225,222.3541 231.59823,222.71636 235.37751,225.59881 C 238.73433,220.79985 241.89983,211.13957 250.75455,202.74688 C 265.9262,207.62684 284.87852,209.54263 307.48581,206.85975 C 309.70471,221.79916 292.30601,214.52838 284.86781,220.61381 C 273.82204,233.77393 259.46885,234.66409 248.75259,250.35124 C 255.39083,254.3143 256.4818,256.47752 256.20042,262.21434 C 259.75391,263.99889 263.4192,257.52791 265.38617,257.8927 C 263.99997,267.13726 256.78083,269.83896 247.9199,269.78775 C 238.71201,267.55912 232.98017,270.62859 232.8069,280.09772 C 208.52027,260.65913 233.33304,256.80869 227.45579,252.08385 z M 238.10397,190.34752 C 246.83943,157.30485 283.54616,134.32326 299.57709,106.85767 C 308.60731,103.58005 320.3585,100.19934 326.36289,90.79352 C 324.53929,90.24436 323.6213,90.42419 322.2098,90.27207 C 315.42982,97.24192 307.6904,100.83377 302.42273,102.09624 C 291.7573,101.68718 294.51556,109.87827 286.89983,109.8956 C 278.88833,109.9287 276.80828,102.89698 278.84017,91.58703 C 288.73123,92.99063 284.57119,92.98585 290.17821,92.05878 C 288.89992,78.47408 280.52723,72.74887 265.16251,72.51472 C 263.49555,66.80123 260.68874,60.74159 256.23909,55.52006 C 261.92411,54.69337 267.74198,52.59872 274.62121,51.36079 C 291.27713,49.08361 288.98924,41.41448 301.59883,41.16762 C 319.30266,42.34663 318.58471,42.60294 324.88119,48.24783 C 331.18581,45.57563 334.72553,42.09462 340.64166,40.13663 C 348.39478,52.27997 338.24954,59.8705 329.88863,65.13278 C 329.658,67.28496 329.57157,66.94581 329.42715,68.71076 C 333.45103,65.29296 336.6223,62.91439 339.98372,60.78386 C 357.09083,72.08257 349.75164,123.94125 344.90683,144.97491 C 339.35127,163.23143 338.27936,179.48547 339.21806,201.19929 C 301.51541,202.65014 260.76917,212.99071 238.10397,190.34752 z M 301.48439,62.49546 C 297.28615,60.24686 293.35522,59.59142 288.74647,60.49751 C 288.6112,66.69867 288.92125,67.74285 291.00864,71.00383 C 295.79159,69.61334 297.69593,67.9915 301.48439,62.49546 z M 224.11812,160.49743 C 227.94378,159.42646 229.492,160.00056 233.94013,159.09573 C 238.77667,149.64157 239.07587,136.98498 232.22272,127.29262 C 224.07072,129.60522 222.02301,133.02747 222.30317,139.60519 C 212.70827,130.44736 216.00117,116.89032 217.9149,109.32879 C 215.00199,106.27112 216.55247,106.67838 210.24889,108.97734 C 212.51823,103.54178 217.85748,95.41617 224.25955,97.76333 C 227.80025,100.69903 226.53614,99.84749 228.72819,98.62386 C 230.75639,94.3681 230.18573,92.15029 227.97621,87.95015 C 237.62099,89.35036 243.93644,94.49127 244.49436,102.16461 C 247.35321,102.94183 248.28939,103.44195 249.47663,103.2229 C 249.60379,99.02174 247.83323,96.75156 246.86282,94.30519 C 255.21857,95.83766 259.44334,109.78093 255.84604,113.82157 C 261.33218,120.70718 264.93689,133.16048 266.45167,142.22437 C 252.45109,157.01073 246.58405,165.52737 237.86647,180.90103 C 227.90333,180.38209 224.00774,168.36447 224.11812,160.49743 z"
     id="loewe"
     sodipodi:nodetypes="ccccccccccccccccccccccccccsccccccccccccccccsccccccccccccccccccccccccccccccccccccccccccccccccccccccccccccccccccccccccccccccc" />
  <path
     style="opacity:1;fill:#000000;fill-opacity:1;fill-rule:nonzero;stroke:none;stroke-width:2;stroke-linecap:butt;stroke-linejoin:miter;marker:none;marker-start:none;marker-mid:none;marker-end:none;stroke-miterlimit:4;stroke-dasharray:none;stroke-dashoffset:0;stroke-opacity:1;visibility:visible;display:inline;overflow:visible;enable-background:accumulate"
     d="M 84.336633,2.61202 L 84.336633,193.93361 L 2,193.93361 L 2,231.14523 L 84.336633,231.14523 L 84.336633,436.91079 C 95.877336,445.19877 108.35355,452.28604 121.58416,457.96472 L 121.58416,231.14523 L 200,231.14523 L 200,193.93361 L 121.58416,193.93361 L 121.58416,2.61202 L 84.336633,2.61202 z"
     id="kreuz"
     sodipodi:nodetypes="ccccccccccccc" />
  <path
     style="opacity:1;fill:none;fill-opacity:1;fill-rule:nonzero;stroke:#000000;stroke-width:4;stroke-linecap:butt;stroke-linejoin:miter;marker:none;marker-start:none;marker-mid:none;marker-end:none;stroke-miterlimit:4;stroke-dasharray:none;stroke-dashoffset:0;stroke-opacity:1;visibility:visible;display:inline;overflow:visible;enable-background:accumulate"
     d="M 200,2 C 194.64912,2 189.37438,2.19993 184.13305,2.61202 L 2,2.61202 L 2,199.80913 L 2,238.61203 L 2,276.19087 C 2,385.77713 90.308,474 200,474 C 309.692,474 398,385.77713 398,276.19087 L 398,238.61203 L 398,199.80913 L 398,2.61202 L 215.86695,2.61202 C 210.62563,2.19993 205.35089,2 200,2 z"
     id="schildrahmen" />
</svg>

<svg xmlns="http://www.w3.org/2000/svg" width="400" height="476" version="1.0"><path style="opacity:1;fill:#fff;fill-opacity:1;fill-rule:nonzero;stroke:#000;stroke-width:2;stroke-linecap:butt;stroke-linejoin:miter;marker:none;marker-start:none;marker-mid:none;marker-end:none;stroke-miterlimit:4;stroke-dasharray:none;stroke-dashoffset:0;stroke-opacity:1;visibility:visible;display:inline;overflow:visible;enable-background:accumulate" d="M200 2 2 2.612v197.197 76.382C2 385.777 90.308 474 200 474V2z"/><path style="opacity:1;fill:#fcdd09;fill-opacity:1;fill-rule:nonzero;stroke:#000;stroke-width:2;stroke-linecap:butt;stroke-linejoin:miter;marker:none;marker-start:none;marker-mid:none;marker-end:none;stroke-miterlimit:4;stroke-dasharray:none;stroke-dashoffset:0;stroke-opacity:1;visibility:visible;display:inline;overflow:visible;enable-background:accumulate" d="m200 2 198 .612v197.197 76.382C398 385.777 309.692 474 200 474V2z"/><path style="opacity:1;fill:#da121a;fill-opacity:1;fill-rule:nonzero;stroke:none;stroke-width:2;stroke-linecap:butt;stroke-linejoin:miter;marker:none;marker-start:none;marker-mid:none;marker-end:none;stroke-miterlimit:4;stroke-dashoffset:0;stroke-opacity:1;visibility:visible;display:inline;overflow:visible;enable-background:accumulate" d="M218.249 46.074c26.222 3.809 20.359 36.168 31.333 33.052 13.342-1.385 22.642.185 36.894 1.57 2.643 3.635.91 1.039 2.296 4.5-19.638-2.423-28.013-1.73-45.572 1.732-25.644-4.155-12.129-27.351-24.951-40.854z"/><path style="opacity:1;fill:#000;fill-opacity:1" d="M252.802 403.75c-2.74 1.841-4.075 4.105-3.633 11.395-7.505-3.936-6.014-11.886-2.36-16.293 3.431-3.904 4.122-5.244 6.505-10.972 9.412-3.02 8.388-10.99-2.487-6.044.284-10.996 11.728-5.967 16-11.95 8.165-4.942 14.155 3.815 20.133 7.76 5.24-13.087 17.174-23.218 25.097-38.802-1.92-2.445-7.516-10.52-9.435-12.966-11.812-31.145-8.603-50.84 14.274-68.047-4.174-8.7-10.845-18.394-20.72-20.81-5.784-.966-9.114-6.19-14.576-8.507 8.185-16.684 27.334 1.913 29.26-21.85 17.847-2.224 22.48-2.508 28.45-1.763 8.298 36.907 30.818 64.164 41.531 38.104-.678-26.652-34.171-22.515-33.547-68.591-2.675-19.644 36.527-43.043 37.83-92.363.035-14.306-2.245-21.552-9.7-22.932 1.501 4.969 4.132 9.353 2.309 19.43-2.827-7.223-4.632-10.395-11.262-12.38 4.114 7.075 11.08 14.735 9.02 24.086-2.984-6.518-6.065-8.283-11.72-11.384 4.637 7.11 12.13 15.575 5.439 22.726-.474-3.956-2.586-10.615-5.98-11.273 2.528 10.888 2.803 22.566-5.78 25.392 1.619-19.397-7.237-35.93-9.267-55.122 1.132-14.53 7.81-22.662 21.766-22.97 14.074-.313 24.403 19.23 24.12 43.238 4.66 37.749-42.597 78.927-37.415 102.661 2.35-10.532 8.38-15.572 11.489-29.026 8.794 13.663-6.27 28.883-3.098 44.707 2.62-10.917 8.726-12.805 12.21-30.229 6.818 12.272-4.752 29.613-2.567 40.015 2.32-8.67 7.527-12.21 8.625-23.502 9.198 9.44-4.319 20.481-2.247 32.6 3.198-2.557 5.446-9.922 7.522-15.992 4.653 7.592-3.048 16.732-1.211 22.44 10.162 21.126 3.407 37.457-19.795 51.676-12.959 9.124-20.04 20.39-22.978 35.587.038 20.112 15.84 33.079 12.91 59.133-24.07 2.892-45.775 9.622-57.248 23.23.144 6.295.864 11.307-1.936 16.79.267 4.207 2.382 5.054 7.105 5.826-4.602 2.018-5.525 2.278-11.825 1.839-11.462-.798-7.913-4.243-14.961.749-1.672 5.176-.335 7.577 2.864 13.683-26.749-6.255-17.634-22.68-28.71-29.299zM241.88 331.2c-5.993 8.725.59 16.97-12.626 12.64-.964 2.74.248 3.855 1.97 7.273-9.219-1.215-5.317-14.457-13.145-14.26-4.326 2.01-3.38 3.082-2.611 9.316-10.349-10.684-9.529-19.62-1.635-24.664-.783-5.006-4.178-10.509-9.314-2.295-4.133-11.828 7.887-20.508 11.833-23.765.617-1.422 1.2-3.638-5.576-6.476 11.199-9.326 32.89 9.297 29.34 19.802 7.555-1.44 15.137-.415 22.188-1.672 3.404-13.851 2.689-29.534 7.75-45.391 1.803-2.605 11.028-13.52 34.577-15.632 3.621 3.254 5.798 6.309 7.538 10.177-26.718 27.596-22.281 31.85-12.956 80.278-2.48 8.038-20.378 16.069-22.514 16.005-10.53-12.12-20.445-18.69-34.82-21.336zm-7.573-24.094c-2.696-6.99-6.076-9.739-10.835-10.228 1.014 4.847 4.18 9.452 10.835 10.228zm-6.851-55.022c-6.27-.988-.774 6.946-13.935 6.31-1.22-3.258-.878-9.812-6.035 1.932-1.925-5.902-1.64-14.523 2.316-19.388 7.611-6.305 3.923-7.169-4.551-11.65 7.741-4.28 13.215-6.496 17.732-6.923 9.32-.01 8.615.351 12.395 3.234 3.356-4.8 6.522-14.46 15.377-22.852 15.171 4.88 34.124 6.796 56.73 4.113 2.22 14.94-15.179 7.668-22.617 13.754-11.046 13.16-25.4 14.05-36.115 29.737 6.638 3.963 7.729 6.127 7.447 11.863 3.554 1.785 7.22-4.686 9.186-4.321-1.386 9.244-8.605 11.946-17.466 11.895-9.208-2.229-14.94.84-15.113 10.31-24.287-19.439.526-23.29-5.351-28.014zm10.648-61.736c8.735-33.043 45.442-56.025 61.473-83.49 9.03-3.278 20.781-6.659 26.786-16.064-1.824-.55-2.742-.37-4.153-.522-6.78 6.97-14.52 10.562-19.787 11.824-10.666-.409-7.907 7.782-15.523 7.8-8.012.033-10.092-6.999-8.06-18.309 9.891 1.404 5.731 1.399 11.338.472-1.278-13.585-9.65-19.31-25.015-19.544-1.667-5.714-4.474-11.773-8.924-16.995 5.685-.827 11.503-2.921 18.382-4.16 16.656-2.276 14.368-9.946 26.978-10.192 17.704 1.179 16.986 1.435 23.282 7.08 6.305-2.672 9.845-6.153 15.76-8.111 7.754 12.143-2.391 19.733-10.752 24.996-.231 2.152-.317 1.813-.462 3.578 4.024-3.418 7.195-5.797 10.557-7.927 17.107 11.299 9.768 63.157 4.923 84.19-5.556 18.257-6.628 34.511-5.689 56.225-37.703 1.451-78.449 11.792-101.114-10.851zm63.38-127.853c-4.198-2.248-8.129-2.904-12.738-1.997-.135 6.2.175 7.245 2.263 10.506 4.783-1.39 6.687-3.013 10.475-8.509zm-77.366 98.002c3.826-1.07 5.374-.496 9.822-1.401 4.837-9.454 5.136-22.111-1.717-31.803-8.152 2.312-10.2 5.734-9.92 12.312-9.595-9.158-6.302-22.715-4.388-30.276-2.913-3.058-1.363-2.65-7.666-.352 2.27-5.435 7.608-13.56 14.01-11.214 3.541 2.936 2.277 2.084 4.47.86 2.027-4.255 1.457-6.473-.753-10.673 9.645 1.4 15.96 6.541 16.518 14.215 2.86.777 3.795 1.277 4.983 1.058.127-4.201-1.644-6.471-2.614-8.918 8.356 1.533 12.58 15.476 8.983 19.517 5.486 6.885 9.09 19.338 10.606 28.402-14 14.787-19.868 23.303-28.586 38.677-9.963-.519-13.858-12.537-13.748-20.404z"/><path style="opacity:1;fill:#000;fill-opacity:1;fill-rule:nonzero;stroke:none;stroke-width:2;stroke-linecap:butt;stroke-linejoin:miter;marker:none;marker-start:none;marker-mid:none;marker-end:none;stroke-miterlimit:4;stroke-dasharray:none;stroke-dashoffset:0;stroke-opacity:1;visibility:visible;display:inline;overflow:visible;enable-background:accumulate" d="M84.337 2.612v191.322H2v37.211h82.337v205.766a197.227 197.227 0 0 0 37.247 21.054v-226.82H200v-37.211h-78.416V2.612H84.337z"/><path style="opacity:1;fill:none;fill-opacity:1;fill-rule:nonzero;stroke:#000;stroke-width:4;stroke-linecap:butt;stroke-linejoin:miter;marker:none;marker-start:none;marker-mid:none;marker-end:none;stroke-miterlimit:4;stroke-dasharray:none;stroke-dashoffset:0;stroke-opacity:1;visibility:visible;display:inline;overflow:visible;enable-background:accumulate" d="M200 2c-5.35 0-10.626.2-15.867.612H2v197.197 38.803 37.579C2 385.777 90.308 474 200 474s198-88.223 198-197.81v-37.578-38.803V2.612H215.867A202.102 202.102 0 0 0 200 2z"/></svg>
